X:1
T:Who Will Suffer with the Savior?
T:Daniel Sidney Warner, 1893
T:Who Will Suffer with the Savior?
T:Musi
T:Musi
C:Daniel Sidney Warner, 1893
Z:Musi
%%score ( 1 2 ) ( 3 4 )
L:1/8
M:4/4
K:Eb
V:1 treble 
V:2 treble 
V:3 bass 
V:4 bass 
V:1
 [GB]3 [FA] [EG][FA][EB][Ec] | [EB]4 [EG]4 | [FA]3 [EG] [DF][Ac][GB][FA] | [EG]8 | %4
w: 1.~Who will suf- fer with the|Sav- ior,|Take the lit- tle that re-|mains|
w: 2.~Who will of- fer soul and|bo- dy|On the al- tar of our|God?|
w: 3.~O for con- se- crat- ed|ser- vice|’Mid the din of Ba- bel|strife!|
w: 4.~Soon the con- flict will be|o- ver,|Crowns a- wait the firm and|pure;|
 [GB]3 [FA] [EG][EA][EB][Ec] | [EB]4 [Ge]4 | [Ad]3 [Ac] [GB][FA][EG][DF] | E6 ||"^Refrain" EF | %9
w: Of the cup of tri- bu-|la- tion|Je- sus drank in dy- ing|pain?||
w: Leav- ing self and world- ly|mam- mon,|Take the path that Je- sus|trod?|we fel-|
w: Who will dare the truth to|her- ald|At the per- il of his|life?||
w: For- ward, breth- ren, work and|suf- fer,|Faith- ful to the end en-|dure.||
 (E2 E2 [EG])[FA][GB][Ac] | [GB]4 [EG]2 [FA][EG] | [DF]2 [EG]2 [FA]2 [DB]2 | (E2 EE E2) [EG][FA] | %13
w: ||||
w: low- * * ship Thy pass-|* Glad- ly suf-|fer shame and loss;|With * * * Thy bless-|
w: ||||
w: ||||
 [GB]4- [GB][ce][Bd][Ac] | [GB]4 [Ge]2 [Ge][Be] | [Ad]2 [Ad]2 [Ac]2 [Ad]2 | (G2 AA G2) z2 |] %17
w: ||||
w: pain * is plea- sure,|We will glo- ry|in Thy cross. *||
w: ||||
w: ||||
V:2
 x8 | x8 | x8 | x8 | x8 | x8 | x8 | E6 || x2 | G4- x4 | x8 | x8 | G6 x2 | x8 | x8 | x8 | e6 x2 |] %17
w: |||||||||||||||||
w: |||||||Lord,||ion,|||ing|||||
V:3
 [E,B,]3 [E,B,] [E,B,][E,B,][E,G,][E,A,] | [E,G,]4 [E,B,]4 | %2
w: ~ ~ ~ ~ ~ ~|~ ~|
 [B,,B,]3 [B,,B,] [B,,B,][B,,B,][B,,B,][B,,B,] | [E,B,]8 | %4
w: ~ ~ ~ ~ ~ ~|~|
 [E,B,]3 [E,B,] [E,B,][E,F,][E,G,][E,A,] | [E,G,]4 [E,B,]4 | B,3 B, [B,,B,][B,,B,][B,,B,][B,,A,] | %7
w: ~ ~ ~ ~ ~ ~|~ ~|~ ~ ~ ~ ~ ~|
 [E,G,]6 || G,A, | E,2 E,2 [E,B,][E,B,][E,E][E,E] | [E,E]4 [E,B,]2 z2 | %11
w: ~|Lord,~we fel-|low- ship Thy pass- ion, Glad-|suf- fer|
 [B,,B,]2 [B,,B,]2 [B,,B,]2 [B,,B,]2 | [E,B,]2 [E,B,][E,B,] [E,B,]2 z2 | %13
w: loss, shame and loss|With Thy bless- ing|
 [E,E]2 [E,E]2 [E,E][E,E][E,E][E,E] | [E,E]4 [E,B,]2 [E,B,][G,B,] | B,2 B,2 [B,,B,]2 [B,,B,]2 | %16
w: pain is * * * *|||
 (B,2 CC B,2) z2 |] %17
w: |
V:4
 x8 | x8 | x8 | x8 | x8 | x8 | B,3 B, x4 | x6 || x2 | B,4- x4 | x8 | x8 | x8 | x8 | x8 | %15
w: ||||||~ ~|||ly||||||
 B,2 B,2 x4 | E,6 x2 |] %17
w: ||

